X:1     %Music
B:Patterson, D W, 1979, The Shaker Spiritual, Princeton University Press, New Jersey
Z:Daniel W Patterson
F:http://www.folkinfo.org/songs
T:The Rolling Deep
C:Polly Lawrence, 1826
Q:1/4=106
M:6/8     %Meter
L:1/8     %
K:C
A |G2 A G2 G |(cd)e d2
w:The roll-ing deep may o-*ver-turn 
 e |c2 c c2 G | (AG)E D2
w:The val-lies sink the mount-*ains burn 
 E |C2 C (ED)E |G2 G A2 
w:But thou my soul_ shall firm-ly stand 
G |(GA)B c2 c | {G}A2 G G2  :|
w:Sup-port-*ed by God's  right-eous hand 
|:F |E2 E F2 G |A2 A A2 
w:To Thee, O Lord, my thanks I give
G |(GA)B c2 c |{G}A2 G G2
w:Tis by_ thy ho-ly faith I live 
 F |E2 E F2 G |A2 G c2 
w:My life I free-ly have laid down 
G |(GA)B c2 c |{G}A2 G G2 :|
w:To bear_ the cross and wear the crown 
